src/assets/images/icon-filters.inline.svg

<?xml version="1.0" encoding="UTF-8"?>
<svg width="97px" height="102px" viewBox="0 0 97 102" version="1.1" xmlns="http://www.w3.org/2000/svg" xmlns:xlink="http://www.w3.org/1999/xlink">
    <!-- Generator: Sketch 54.1 (76490) - https://sketchapp.com -->
    <title>dog</title>
    <desc>Created with Sketch.</desc>
    <g id="Page-1" stroke="none" stroke-width="1" fill="none" fill-rule="evenodd">
        <g id="Desktop-HD-Copy-2" transform="translate(-446.000000, -4318.000000)" fill-rule="nonzero">
            <g id="dog" transform="translate(446.000000, 4318.000000)">
                <path d="M48.4393127,44.8024292 C52.3085136,53.7415925 69.5351322,62.1912689 74.1006802,48.0054932 C80.3040057,28.7318572 55.741233,28.7264098 48.4393127,28.7264098 C41.1366145,28.7264098 16.5738419,28.7318572 22.7771673,48.0054932 C27.3427153,62.1912689 44.5693339,53.7408141 48.4393127,44.8024292 Z" id="Path" fill="#E1B89A"></path>
                <path d="M32.988185,30.3365021 C25.5462172,32.4096222 19.2845385,37.1527406 22.7771673,48.0054932 C26.1655385,58.532959 36.525162,56.5929108 43.2256561,51.2389069 C32.8559179,50.2420348 29.2395806,38.069458 32.988185,30.3365021 L32.988185,30.3365021 Z" id="Path" fill="#D2996F"></path>
                <path d="M29.1851178,44.2234497 C29.0520726,43.4047852 28.2810334,42.8483734 27.4625336,42.9814453 C26.6440339,43.1145173 26.0877341,43.8857116 26.2207793,44.7043763 C26.3538244,45.5230407 27.1248637,46.0794525 27.9433634,45.9463805 C28.7618632,45.8133088 29.3181628,45.0421143 29.1851178,44.2234497 Z" id="Path" fill="#E1B89A"></path>
                <path d="M36.9087366,44.4530182 C36.3220932,43.8662567 35.3713265,43.8662567 34.785461,44.4530182 C34.1988177,45.0390015 34.1988177,45.9899596 34.785461,46.5767212 C35.3713265,47.1634828 36.3220932,47.1634828 36.9087366,46.5767212 C37.4953799,45.9899596 37.4953799,45.0390015 36.9087366,44.4530182 Z" id="Path" fill="#D2996F"></path>
                <path d="M32.4863481,49.8988494 C32.3533031,49.0801849 31.5822639,48.5237731 30.7637641,48.656845 C29.9444864,48.789917 29.3889646,49.5611115 29.5220098,50.3797761 C29.6542767,51.1992188 30.426094,51.7548522 31.2445939,51.6217804 C32.0630935,51.4894866 32.6193932,50.717514 32.4863481,49.8988494 L32.4863481,49.8988494 Z" id="Path" fill="#E1B89A"></path>
                <g id="Group" transform="translate(59.355236, 42.832031)" fill="#D2996F">
                    <path d="M10.2810416,0.202331543 C9.4913293,-0.0505828359 8.64559805,0.384430031 8.39273459,1.1743011 C8.13987112,1.96417236 8.57479622,2.8100739 9.36450847,3.06298828 C10.1542207,3.31590266 10.9991738,2.88088999 11.2528154,2.09101873 C11.5056789,1.30114746 11.0707536,0.455245922 10.2810416,0.202331543 Z" id="Path"></path>
                    <path d="M2.73637219,1.62098699 C2.14972894,1.03422541 1.19896203,1.03422541 0.612318774,1.62098699 C0.0256753224,2.20774836 0.0256753224,3.15870671 0.612318774,3.74468994 C1.19896203,4.33145152 2.14972894,4.33145152 2.73637219,3.74468994 C3.32223765,3.15870671 3.32223765,2.20774836 2.73637219,1.62098699 Z" id="Path"></path>
                    <path d="M6.89267042,5.85360708 C6.08973151,5.64505015 5.27045377,6.12753286 5.06193843,6.93063345 C4.85420147,7.73373403 5.33658725,8.55317693 6.13952617,8.76095571 C6.94168689,8.96951304 7.76174281,8.48702993 7.96947997,7.68392934 C8.17721712,6.88082876 7.69560933,6.06138606 6.89267042,5.85360708 Z" id="Path"></path>
                </g>
                <path d="M59.3101098,36.8889313 L53.4911368,42.7090758 C50.7010796,45.4996948 46.1767679,45.4996948 43.3867107,42.7090758 L37.5677377,36.8889313 C35.5572782,34.8780671 36.2933057,31.4609985 38.9542079,30.4563446 C45.0672805,28.149765 51.811345,28.149765 57.9236396,30.4563446 C60.5845418,31.4609985 61.3213473,34.8780671 59.3101098,36.8889313 Z" id="Path" fill="#4E5660"></path>
                <path d="M45.467194,28.8983918 C43.2559997,29.1443024 41.0665908,29.6594696 38.9542079,30.4563446 C36.2933057,31.4602204 35.5565003,34.8780671 37.5677377,36.8889313 L43.3867107,42.7090758 C46.1767679,45.4996948 50.7010796,45.4996948 53.4911368,42.7090758 L53.512922,42.6872865 C46.6498172,41.9051971 42.774392,33.0422974 45.467194,28.8983918 L45.467194,28.8983918 Z" id="Path" fill="#383C43"></path>
                <path d="M49.7401982,62.399826 C48.9738273,62.9912567 47.90402,62.9912567 47.1376491,62.399826 C44.3188044,60.2263184 40.1959623,61.5772705 39.2109615,64.9974518 L32.8302426,87.1348571 C31.0360786,93.3612214 34.8687115,99.81015 41.1941895,101.208572 C45.9666966,102.263809 50.9111509,102.263809 55.6836579,101.208572 C62.009136,99.81015 65.8417688,93.3612214 64.046827,87.1348571 L57.666886,64.9974518 C56.6818853,61.5772705 52.5590429,60.2263184 49.7401982,62.399826 L49.7401982,62.399826 Z" id="Path" fill="#EDA1AB"></path>
                <path d="M41.1941895,101.208572 C45.9666966,102.263809 50.9119289,102.263809 55.6836579,101.208572 C59.2175228,100.427261 61.972568,98.0685425 63.4033865,95.0538024 C37.1405929,101.639694 39.1393817,73.0019989 43.3890449,61.3943939 C41.5077403,61.6504212 39.7999389,62.9539031 39.2109615,64.99823 L32.8302426,87.1348571 C31.0360786,93.3612214 34.8687115,99.81015 41.1941895,101.208572 L41.1941895,101.208572 Z" id="Path" fill="#E26E7E"></path>
                <path d="M48.4393127,94.0763854 C47.6138106,94.0763854 46.9454728,93.4071351 46.9454728,92.5822448 L46.9454728,69.8168335 C46.9454728,68.9919434 47.6138106,68.3226929 48.4393127,68.3226929 C49.2640369,68.3226929 49.9331525,68.9919434 49.9331525,69.8168335 L49.9331525,92.5822448 C49.9331525,93.4071351 49.2640369,94.0763854 48.4393127,94.0763854 Z" id="Path" fill="#E26E7E"></path>
                <path d="M12.0440837,1.85444646 C4.22554388,9.86288442 20.1699499,24.8844451 12.3358493,33.6049347 C4.50252668,42.3254241 -1.81750513,24.188736 0.476939439,18.5592498 L0.476939439,18.5553589 C3.38292479,12.3422241 7.3104787,6.70339976 12.0440837,1.85444646 Z" id="Path" fill="#E1B89A"></path>
                <path d="M12.6571804,18.8012695 C10.5105637,12.5048675 7.8364348,6.16410823 12.0440837,1.85444646 C15.6269651,-1.72837825 19.4502615,0.478591969 22.2706622,3.43652344 C23.3194623,4.53689585 23.2509946,6.28005991 22.1212782,7.29716487 C18.4263588,10.6255189 15.211491,14.4986115 12.6532903,18.7895965" id="Path" fill="#FFD4BE"></path>
                <path d="M84.8337638,1.85444646 C92.6523036,9.86288442 76.7078976,24.8844451 84.5419982,33.6049347 C92.3753208,42.3254241 98.6953527,24.188736 96.4009081,18.5592498 L96.4009081,18.5553589 C93.4957007,12.3422241 89.5673688,6.70339976 84.8337638,1.85444646 L84.8337638,1.85444646 Z" id="Path" fill="#E1B89A"></path>
                <path d="M84.2206671,18.8012695 C86.3672839,12.5048675 89.0414127,6.16410823 84.8337638,1.85444646 C81.2516604,-1.72837825 77.427586,0.478591969 74.6071853,3.43652344 C73.5583853,4.53689585 73.6276309,6.28005991 74.7565693,7.29716487 C78.4522667,10.6255189 81.6663565,14.4986115 84.2245572,18.7895965" id="Path" fill="#FFD4BE"></path>
            </g>
        </g>
    </g>
</svg>

<svg width="97" height="102" xmlns="http://www.w3.org/2000/svg"><g fill-rule="nonzero" fill="none"><path d="M48.44 44.802c3.869 8.94 21.095 17.39 25.66 3.203 6.204-19.273-18.359-19.279-25.66-19.279-7.303 0-31.866.006-25.663 19.28C27.343 62.19 44.57 53.74 48.44 44.801z" fill="#E1B89A"/><path d="M32.988 30.337c-7.442 2.073-13.703 6.816-10.21 17.668 3.388 10.528 13.747 8.588 20.448 3.234-10.37-.997-13.986-13.17-10.238-20.902z" fill="#D2996F"/><path d="M29.185 44.223a1.502 1.502 0 1 0-2.964.481 1.502 1.502 0 0 0 2.964-.48z" fill="#E1B89A"/><path d="M36.909 44.453a1.5 1.5 0 1 0-2.124 2.124 1.5 1.5 0 1 0 2.124-2.124z" fill="#D2996F"/><path d="M32.486 49.899a1.502 1.502 0 1 0-2.964.48 1.502 1.502 0 0 0 2.964-.48z" fill="#E1B89A"/><g fill="#D2996F"><path d="M69.636 43.034a1.502 1.502 0 1 0-.916 2.86 1.502 1.502 0 0 0 .916-2.86zM62.092 44.453a1.502 1.502 0 1 0-2.124 2.123 1.502 1.502 0 0 0 2.124-2.123zM66.248 48.686a1.502 1.502 0 1 0-.754 2.907 1.502 1.502 0 0 0 .754-2.907z"/></g><path d="M59.31 36.889l-5.819 5.82a7.144 7.144 0 0 1-10.104 0l-5.82-5.82c-2.01-2.01-1.274-5.428 1.387-6.433a26.866 26.866 0 0 1 18.97 0c2.66 1.005 3.397 4.422 1.386 6.433z" fill="#4E5660"/><path d="M45.467 28.898c-2.211.246-4.4.761-6.513 1.558-2.66 1.004-3.397 4.422-1.386 6.433l5.819 5.82a7.144 7.144 0 0 0 10.104 0l.022-.022c-6.863-.782-10.739-9.645-8.046-13.789z" fill="#383C43"/><path d="M49.74 62.4a2.13 2.13 0 0 1-2.602 0c-2.82-2.174-6.942-.823-7.927 2.597l-6.38 22.138c-1.795 6.226 2.038 12.675 8.363 14.074a33.555 33.555 0 0 0 14.49 0c6.325-1.399 10.158-7.848 8.363-14.074l-6.38-22.138c-.985-3.42-5.108-4.77-7.927-2.597z" fill="#EDA1AB"/><path d="M41.194 101.209a33.555 33.555 0 0 0 14.49 0 11.197 11.197 0 0 0 7.72-6.155c-26.263 6.586-24.265-22.052-20.015-33.66-1.881.256-3.59 1.56-4.178 3.604l-6.38 22.137c-1.795 6.226 2.038 12.675 8.363 14.074z" fill="#E26E7E"/><path d="M48.44 94.076c-.826 0-1.495-.669-1.495-1.494V69.817a1.494 1.494 0 1 1 2.988 0v22.765c0 .825-.669 1.494-1.494 1.494z" fill="#E26E7E"/><path d="M12.044 1.854c-7.818 8.009 8.126 23.03.292 31.75C4.503 42.326-1.818 24.19.476 18.56v-.004a60.788 60.788 0 0 1 11.568-16.7z" fill="#E1B89A"/><path d="M12.657 18.801c-2.146-6.296-4.82-12.637-.613-16.947C15.627-1.728 19.45.48 22.271 3.437a2.691 2.691 0 0 1-.15 3.86 49.9 49.9 0 0 0-9.468 11.493" fill="#FFD4BE"/><path d="M84.834 1.854c7.818 8.009-8.126 23.03-.292 31.75 7.833 8.721 14.153-9.415 11.859-15.045v-.004a60.77 60.77 0 0 0-11.567-16.7z" fill="#E1B89A"/><path d="M84.22 18.801c2.147-6.296 4.821-12.637.614-16.947C81.252-1.728 77.428.48 74.607 3.437a2.692 2.692 0 0 0 .15 3.86 49.88 49.88 0 0 1 9.468 11.493" fill="#FFD4BE"/></g></svg>
